X: 776
T: Aires De Pontevedra
R: reel
M: 4/4
K: Amixolydian
e|a2 e2 c2 de|fedc B3 c|dedc B2 cd|edcB A2 e2|
a2 e2 c2 de|fedc B3 c|dcde fecA|edBG A6:|
|:Bc|dcdB cABc|dcdB cABc|ecdB cABc|dGBd cAce|
g4 gfge|agfe dcde|Addc dcde|agfe dcde|
c2 cB cBce|agfe dcde|B4 cecA|cecA BdBG|B2 e2 A2:|

